X:247
T: DER MENSCH HAT NICHTS SO EIGEN
N: B0295
O: Europa, Mitteleuropa, Deutschland
R: Stimmungs - Lied, Freude, Geselligkeit, Freundschaft
M: 6/8
L: 1/8
K: G
D | G2AB2c | d3A2
B | c2BA2G | d3-d2
D | G2AB2c | d3A2
B | c2BA2G | d3-d2
B | A2Bc2d | e3A2
d | B2GA2F | G3-G2
B | A2Bc2d | e3A2
d | B2GA2F | G3-G2

